X: 23
T: Beckfords Election
R: reel
M: C
L: 1/16
Z: 2010 John Chambers <jc:trillian.mit.edu>
B: Longman ed. "Twenty Four Country Dances", p.36 London 1770
K: Bb
|: B2F2D2B,2 d4c4 | B2F2D2B,2 F4F4 | B2F2D2B,2 d4c4 | B2d2 fedc B4 B,4 :|
|: fefg f2f2 b2f2 f4 | gfed edcB c2F2 F4 | fefg f2f2 b2f2f2b2 | a2gf g2f=e f4 F4 :|
|: D2F2F4 E2G2G4 | F2e2 dcBA B4 B,4 | D2F2F4 E2G2G4 | F2e2 dcBA B4 B,4 :|


%%sep 5 1 500

